src/svg/28/key_square_outline_28.svg

<svg height="28" viewBox="0 0 28 28" width="28" xmlns="http://www.w3.org/2000/svg"><g fill="none" fill-rule="evenodd"><path d="m0 0h28v28h-28z"/><path d="m17.590287 3.00000006c2.1830063 0 3.2327391.20271276 4.3234261.78601855.9890833.52896753 1.7713008 1.31118502 2.3002683 2.3002683.5526055 1.03328243.7636261 2.02980819.784308 3.98798749l.0017107 7.5160126c0 2.1830063-.2027129 3.2327391-.7860187 4.3234261-.5289675.9890833-1.311185 1.7713008-2.3002683 2.3002683-1.0332824.5526055-2.0298082.7636261-3.9879875.784308l-1.9257255.0017107c-.5522848 0-1-.4477154-1-1 0-.5128359.3860401-.9355072.8833788-.9932723l.1166212-.0067277h1.5902869l.5573821-.0048787c1.4792854-.0280498 2.1416529-.1804601 2.8228463-.5447663.6405464-.3425679 1.1372718-.8392933 1.4798397-1.4798397.3643062-.6811934.5167165-1.3435609.5447663-2.8228463l.0048787-.5573821v-7.180574l-.0048787-.55738207c-.0280498-1.47928541-.1804601-2.14165293-.5447663-2.82284636-.3425679-.64054635-.8392933-1.13727173-1.4798397-1.47983967-.6811934-.36430623-1.3435609-.51671653-2.8228463-.54476627l-.5573821-.00487857h-7.180574l-.55738207.00487857c-1.47928541.02804974-2.14165293.18046004-2.82284636.54476627-.64054635.34256794-1.13727173.83929332-1.47983967 1.47983967-.36430623.68119343-.51671653 1.34356095-.54476627 2.82284636l-.00487857.55738207v1.5936099c0 .5522848-.44771534 1-1 1-.51283587 0-.93550716-.3860402-.99327227-.8833788l-.00672773-.1166212v-1.5936099c0-2.18300626.20271276-3.23273908.78601855-4.32342609.52896753-.98908328 1.31118502-1.77130077 2.3002683-2.3002683 1.03328243-.55260549 2.02980819-.76362609 3.98798749-.78430802zm1.409713 4.99999994c.5522847 0 1 .44771525 1 1v6c0 .5522847-.4477153 1-1 1h-1.501l.001 1.5c0 .5128552-.3860683.9355354-.8834277.993278l-.1166258.006722-2.5939465-.001.0288604.1528347c.0287796.1856754.0481373.3735108.0578447.5629272l.0072949.2852381c0 3.0375661-2.4624339 5.5-5.5 5.5-3.03756612 0-5.5-2.4624339-5.5-5.5s2.46243388-5.5 5.5-5.5c.32783392 0 .65221207.0287975.97027924.0854819l.02472076.0045181 5.7978997-5.79711321c.1562798-.15627704.3589592-.25548595.5756579-.28421456l.1314424-.00867223zm-1.001 2h-1.585l-5.8997891 5.89989c-.2318633.231859-.56045228.3335145-.87855504.2780973l-.1185876-.0281967c-.32639673-.0989211-.66775382-.1497906-1.01706826-.1497906-1.93299662 0-3.5 1.5670034-3.5 3.5s1.56700338 3.5 3.5 3.5c1.9329966 0 3.5-1.5670034 3.5-3.5 0-.5482187-.1254323-1.076435-.3633561-1.5551322-.3304114-.6647801.1531803-1.4451197.8955443-1.44508l2.9668118.0002122.001-1.5c0-.5128358.3860402-.9355072.8833789-.9932723l.1166211-.0067277h1.499zm-9.999 9c.55228475 0 1 .4477153 1 1s-.44771525 1-1 1-1-.4477153-1-1 .44771525-1 1-1z" fill="currentColor" fill-rule="nonzero"/></g></svg>

<?xml version="1.0" encoding="UTF-8"?>
<svg width="28px" height="28px" viewBox="0 0 28 28" version="1.1" xmlns="http://www.w3.org/2000/svg" xmlns:xlink="http://www.w3.org/1999/xlink">
    <!-- Generator: Sketch 63.1 (92452) - https://sketch.com -->
    <title>key_square_outline_28</title>
    <desc>Created with Sketch.</desc>
    <g id="Page-1" stroke="none" stroke-width="1" fill="none" fill-rule="evenodd">
        <g id="key_square_outline_28">
            <rect x="0" y="0" width="28" height="28"></rect>
            <path d="M17.590287,3.00000006 C19.7732933,3.00000006 20.8230261,3.20271282 21.9137131,3.78601861 C22.9027964,4.31498614 23.6850139,5.09720363 24.2139814,6.08628691 C24.7665869,7.11956934 24.9776075,8.1160951 24.9982894,10.0742744 L25.0000001,17.590287 C25.0000001,19.7732933 24.7972872,20.8230261 24.2139814,21.9137131 C23.6850139,22.9027964 22.9027964,23.6850139 21.9137131,24.2139814 C20.8804307,24.7665869 19.8839049,24.9776075 17.9257256,24.9982894 L16.0000001,25.0000001 C15.4477153,25.0000001 15.0000001,24.5522847 15.0000001,24.0000001 C15.0000001,23.4871642 15.3860402,23.0644929 15.8833789,23.0067278 L16.0000001,23.0000001 L17.590287,23.0000001 L18.1476691,22.9951214 C19.6269545,22.9670716 20.289322,22.8146613 20.9705154,22.4503551 C21.6110618,22.1077872 22.1077872,21.6110618 22.4503551,20.9705154 C22.8146613,20.289322 22.9670716,19.6269545 22.9951214,18.1476691 L23.0000001,17.590287 L23.0000001,10.409713 L22.9951214,9.85233093 C22.9670716,8.37304552 22.8146613,7.710678 22.4503551,7.02948457 C22.1077872,6.38893822 21.6110618,5.89221284 20.9705154,5.5496449 C20.289322,5.18533867 19.6269545,5.03292837 18.1476691,5.00487863 L17.590287,5.00000006 L10.409713,5.00000006 L9.85233093,5.00487863 C8.37304552,5.03292837 7.710678,5.18533867 7.02948457,5.5496449 C6.38893822,5.89221284 5.89221284,6.38893822 5.5496449,7.02948457 C5.18533867,7.710678 5.03292837,8.37304552 5.00487863,9.85233093 L5.00000006,10.409713 L5.00000006,12.0033229 C5.00000006,12.5556077 4.55228472,13.0033229 4.00000006,13.0033229 C3.48716419,13.0033229 3.0644929,12.6172827 3.00672779,12.1199441 L3.00000006,12.0033229 L3.00000006,10.409713 C3.00000006,8.22670674 3.20271282,7.17697392 3.78601861,6.08628691 C4.31498614,5.09720363 5.09720363,4.31498614 6.08628691,3.78601861 C7.11956934,3.23341312 8.1160951,3.02239252 10.0742744,3.00171059 L17.590287,3.00000006 Z M19,8 C19.5522847,8 20,8.44771525 20,9 L20,9 L20,15 C20,15.5522847 19.5522847,16 19,16 L19,16 L17.499,16 L17.5,17.5 C17.5,18.0128552 17.1139317,18.4355354 16.6165723,18.493278 L16.6165723,18.493278 L16.4999465,18.5 L13.906,18.499 L13.9348604,18.6518347 C13.96364,18.8375101 13.9829977,19.0253455 13.9927051,19.2147619 L13.9927051,19.2147619 L14,19.5 C14,22.5375661 11.5375661,25 8.5,25 C5.46243388,25 3,22.5375661 3,19.5 C3,16.4624339 5.46243388,14 8.5,14 C8.82783392,14 9.15221207,14.0287975 9.47027924,14.0854819 L9.47027924,14.0854819 L9.495,14.09 L15.2928997,8.29288679 C15.4491795,8.13660975 15.6518589,8.03740084 15.8685576,8.00867223 L15.8685576,8.00867223 L16,8 Z M17.999,10 L16.414,10 L10.5142109,15.89989 C10.2823476,16.131749 9.95375862,16.2334045 9.63565586,16.1779873 L9.63565586,16.1779873 L9.51706826,16.1497906 C9.19067153,16.0508695 8.84931444,16 8.5,16 C6.56700338,16 5,17.5670034 5,19.5 C5,21.4329966 6.56700338,23 8.5,23 C10.4329966,23 12,21.4329966 12,19.5 C12,18.9517813 11.8745677,18.423565 11.6366439,17.9448678 C11.3062325,17.2800877 11.7898242,16.4997481 12.5321882,16.4997878 L12.5321882,16.4997878 L15.499,16.5 L15.5,15 C15.5,14.4871642 15.8860402,14.0644928 16.3833789,14.0067277 L16.3833789,14.0067277 L16.5,14 L17.999,14 L17.999,10 Z M8,19 C8.55228475,19 9,19.4477153 9,20 C9,20.5522847 8.55228475,21 8,21 C7.44771525,21 7,20.5522847 7,20 C7,19.4477153 7.44771525,19 8,19 Z" id="↳-Icon-Color" fill="currentColor" fill-rule="nonzero"></path>
        </g>
    </g>
</svg>
